www/assets/icons/money.svg

<svg xmlns="http://www.w3.org/2000/svg" width="24" height="24" viewBox="0 0 24 24" fill='currentColor'><path d="M5 8h2v8H5zm7 0H9c-.55 0-1 .45-1 1v6c0 .55.45 1 1 1h3c.55 0 1-.45 1-1V9c0-.55-.45-1-1-1m-1 6h-1v-4h1zm7-6h-3c-.55 0-1 .45-1 1v6c0 .55.45 1 1 1h3c.55 0 1-.45 1-1V9c0-.55-.45-1-1-1m-1 6h-1v-4h1z"/><path d="M2 4v16h20V4zm2 14V6h16v12z"/></svg>

<svg width="24" height="24" viewBox="0 0 24 24" xmlns="http://www.w3.org/2000/svg" fill='currentColor'><path d="M5 8H7V16H5V8ZM12 8H9C8.45 8 8 8.45 8 9V15C8 15.55 8.45 16 9 16H12C12.55 16 13 15.55 13 15V9C13 8.45 12.55 8 12 8ZM11 14H10V10H11V14ZM18 8H15C14.45 8 14 8.45 14 9V15C14 15.55 14.45 16 15 16H18C18.55 16 19 15.55 19 15V9C19 8.45 18.55 8 18 8ZM17 14H16V10H17V14Z"/><path d="M2 4V20H22V4H2ZM4 18V6H20V18H4Z"/></svg>
